X: 173
T:Village Maid,The. JaW.172
M:2/4
Q:50
S:James Winder Ms, Lancashire, 1835-41
R:Air
O:England
A:Wyresdale,Lancashire
H:1/8
Z:vmp.Chris Partington, Aug 2004
K:F
(F/E/F/G/) FA|GFF2|A/G/A/B/ Ac|BAA2|!
c(e/d/) c(g/f/)|Aa/f/ ca|bgfe|f2F2:|!
|:af de/f/|ge cd/e/|fdc=B|c/=B/c/d/ cc|!
af de/f/|ge cd/e/|fdc=B|c2c2:|!
|:c3/2d/4c/4 =BA|ccBA|d3/2e/4d/4 cB|ddcB|!
c3/2d/4c/4 BA|ccBA|BGFE|F2F2:|!
|:C3/2c/4=B/4 c_B|Afef|C3/2c/4=B/4 c_B|Afef|!
dbbb|caaa|(g/a/g/f/) (e/f/e/d/)|(c/d/c/B/) (A/B/A/G/)|!
c3/2d/4c/4 BA|ccBA|d3/2e/4d/4 cB|ddcB|!
c3/2d/4c/4 BA|ccBA|BGFE|F2F2:|]
